svgs/sharp-solid/arrow-up-from-square.svg

<svg xmlns="http://www.w3.org/2000/svg" viewBox="0 0 512 512"><!--! Font Awesome Pro 6.6.0 by @fontawesome - https://fontawesome.com License - https://fontawesome.com/license (Commercial License) Copyright 2024 Fonticons, Inc. --><path d="M278.6 25.4L256 2.7 233.4 25.4l-96 96L114.7 144 160 189.3l22.6-22.6L224 125.3 224 320l0 32 64 0 0-32 0-194.7 41.4 41.4L352 189.3 397.3 144l-22.6-22.6-96-96zM32 32L0 32 0 64 0 480l0 32 32 0 448 0 32 0 0-32 0-416 0-32-32 0-64 0 0 64 32 0 0 352L64 448 64 96l32 0 0-64L32 32z"/></svg>

<svg xmlns="http://www.w3.org/2000/svg" viewBox="0 0 512 512"><!--! Font Awesome Pro 6.4.2 by @fontawesome - https://fontawesome.com License - https://fontawesome.com/license (Commercial License) Copyright 2023 Fonticons, Inc. --><path d="M278.6 25.4L256 2.7 233.4 25.4l-96 96L114.7 144 160 189.3l22.6-22.6L224 125.3V320v32h64V320 125.3l41.4 41.4L352 189.3 397.3 144l-22.6-22.6-96-96zM32 32H0V64 480v32H32 480h32V480 64 32H480 416V96h32V448H64V96H96V32H32z"/></svg>
